X: 32
T:Trunkles - Field Town
S:OY (AB2C)2 (AB2D)2
N:Tune as played for Grand Union Morris
M:4/4
L:1/8
K:D
"A" A3 G F2 A2 | G2 F2 E2 D2 | A3 G F2 B2 | AGFE D4 | A3 G F2 A2 | G2 F2
 E2 D2 | A3 G F2 B2 | AGFE D2 ||
"B" FG | A2 A2 A2 Bc | dcdB A2 d2 | BcBA GABc | A4 A2 ||
"C"dc | B2 G2 GABc | A2 F2 FGAF | G2 E2 EFGE | F2 D2 D2 EF | GFED CDEF |
 D4 D2 ||
"D"dc | B4 G4 | G2 A2 | B2 c2 | A4 F4 | F2 G2 | A2 F2 | G4 E4 | E2 F2 |
G2 E2  | F4 D4 | D4 E2 F2 | GFED CDEF | D4 D2 ||
